X: 2
T: Little Burnt Potato (J-34; New England)
M: 6/8
Z: Transcribed to abc by Mary Lou Knack
R: jig
K: D
fg|: "D"a^ga bag| afd Ade| fdf g2f| "Em (G)"efe Bcd|
     "A"efe dcB| Ace a3|1 a^ga ba=g| "D"f3 f2g:|2 "A"a^ga b2c| "D"d3 d2g|]
|:"D"f2A f2A| fgf f2e| def afd| "G"g3 gef|
"Em"gba gfe| "A"dcB A3|1 a^ga ba=g| "D"f3 fag:|2 "A"a^ga b2c| "D"d3|]

